dist/svg/burger-duo-tone.svg

<svg xmlns="http://www.w3.org/2000/svg" viewBox="0 0 24 24"><path d="M11.336 3.283a9.66 9.66 0 0 0-5.377 2.1c-.746.596-1.678 1.636-1.915 2.137-.089.189-.104.274-.104.602 0 .361.008.399.151.687.237.48.646.794 1.181.906.3.064 13.156.064 13.456 0a1.65 1.65 0 0 0 1.181-.906c.143-.288.151-.326.151-.687 0-.328-.015-.413-.104-.602-.237-.501-1.169-1.541-1.915-2.137-1.266-1.012-2.822-1.717-4.374-1.982-.404-.069-1.601-.173-1.787-.155-.033.003-.278.02-.544.037M13.4 4.879a8.14 8.14 0 0 1 3.703 1.685c.601.475 1.478 1.436 1.449 1.587-.012.065-.401.069-6.552.069s-6.54-.004-6.552-.069c-.028-.147.826-1.088 1.432-1.576a8.14 8.14 0 0 1 3.72-1.692c.635-.111.718-.116 1.58-.102.555.01.884.036 1.22.098m-3.7.437a.745.745 0 0 0 .029 1.382.65.65 0 0 0 .542 0 .748.748 0 0 0 0-1.396.67.67 0 0 0-.571.014m4 1a.745.745 0 0 0 .029 1.382.65.65 0 0 0 .542 0 .748.748 0 0 0 0-1.396.67.67 0 0 0-.571.014m-11 4.501c-.248.111-.458.425-.458.683s.242.604.491.697c.158.06 18.376.06 18.534 0 .249-.093.491-.438.491-.697s-.242-.604-.491-.697c-.078-.03-2.896-.043-9.28-.041-7.589.001-9.188.01-9.287.055m3.16 2.45c-.044.01-.788.253-1.653.54-1.425.473-1.587.535-1.726.667a.73.73 0 0 0-.108.931.74.74 0 0 0 .474.321c.179.047.214.04.764-.138.318-.104.596-.188.618-.188s.053.105.067.234c.04.35.203.923.37 1.296.233.52.549.971.991 1.413A4.64 4.64 0 0 0 8.5 19.719c.497.056 7.045.054 7.52-.002 1.885-.224 3.434-1.492 3.996-3.27.122-.389.224-.937.224-1.209v-.191l.57-.19c.47-.156.596-.215.716-.335.317-.314.29-.834-.056-1.096-.159-.121-.429-.197-.579-.164-.061.014-.745.235-1.52.491l-1.409.466-1.991-.494-1.991-.493-1.99.499-1.99.499-1.982-.495c-1.091-.272-2.004-.493-2.03-.49a1 1 0 0 0-.128.022m2.17 2.021 1.969.491L12 15.28l2.001-.499 1.969.491c1.084.269 2.007.49 2.053.489s.214-.046.375-.1l.292-.1-.025.158c-.135.845-.906 1.803-1.785 2.217-.634.299-.363.281-4.46.295-2.491.008-3.77-.002-3.959-.031a3.1 3.1 0 0 1-1.687-.85c-.615-.586-.943-1.273-1-2.099-.026-.363-.024-.37.07-.408A.7.7 0 0 1 6 14.801c.033-.002.946.218 2.03.487"/></svg>

<svg fill="none" xmlns="http://www.w3.org/2000/svg" viewBox="0 0 24 24"><path d="M11.336 3.283 C 9.404 3.406,7.504 4.148,5.959 5.383 C 5.213 5.979,4.281 7.019,4.044 7.520 C 3.955 7.709,3.940 7.794,3.940 8.122 C 3.940 8.483,3.948 8.521,4.091 8.809 C 4.328 9.289,4.737 9.603,5.272 9.715 C 5.572 9.779,18.428 9.779,18.728 9.715 C 19.263 9.603,19.672 9.289,19.909 8.809 C 20.052 8.521,20.060 8.483,20.060 8.122 C 20.060 7.794,20.045 7.709,19.956 7.520 C 19.719 7.019,18.787 5.979,18.041 5.383 C 16.775 4.371,15.219 3.666,13.667 3.401 C 13.263 3.332,12.066 3.228,11.880 3.246 C 11.847 3.249,11.602 3.266,11.336 3.283 M13.400 4.879 C 14.794 5.135,15.979 5.674,17.103 6.564 C 17.704 7.039,18.581 8.000,18.552 8.151 C 18.540 8.216,18.151 8.220,12.000 8.220 C 5.849 8.220,5.460 8.216,5.448 8.151 C 5.420 8.004,6.274 7.063,6.880 6.575 C 7.969 5.698,9.237 5.121,10.600 4.883 C 11.235 4.772,11.318 4.767,12.180 4.781 C 12.735 4.791,13.064 4.817,13.400 4.879 M9.700 5.316 C 9.084 5.600,9.101 6.436,9.729 6.698 C 9.917 6.777,10.083 6.777,10.271 6.698 C 10.911 6.431,10.911 5.569,10.271 5.302 C 10.076 5.221,9.897 5.225,9.700 5.316 M13.700 6.316 C 13.084 6.600,13.101 7.436,13.729 7.698 C 13.917 7.777,14.083 7.777,14.271 7.698 C 14.911 7.431,14.911 6.569,14.271 6.302 C 14.076 6.221,13.897 6.225,13.700 6.316 M2.700 10.817 C 2.452 10.928,2.242 11.242,2.242 11.500 C 2.242 11.759,2.484 12.104,2.733 12.197 C 2.891 12.257,21.109 12.257,21.267 12.197 C 21.516 12.104,21.758 11.759,21.758 11.500 C 21.758 11.241,21.516 10.896,21.267 10.803 C 21.189 10.773,18.371 10.760,11.987 10.762 C 4.398 10.763,2.799 10.772,2.700 10.817 M5.860 13.267 C 5.816 13.277,5.072 13.520,4.207 13.807 C 2.782 14.280,2.620 14.342,2.481 14.474 C 2.223 14.720,2.177 15.117,2.373 15.405 C 2.491 15.578,2.624 15.668,2.847 15.726 C 3.026 15.773,3.061 15.766,3.611 15.588 C 3.929 15.484,4.207 15.400,4.229 15.400 C 4.251 15.400,4.282 15.505,4.296 15.634 C 4.336 15.984,4.499 16.557,4.666 16.930 C 4.899 17.450,5.215 17.901,5.657 18.343 C 6.452 19.138,7.393 19.593,8.500 19.719 C 8.997 19.775,15.545 19.773,16.020 19.717 C 17.905 19.493,19.454 18.225,20.016 16.447 C 20.138 16.058,20.240 15.510,20.240 15.238 L 20.240 15.047 20.810 14.857 C 21.280 14.701,21.406 14.642,21.526 14.522 C 21.843 14.208,21.816 13.688,21.470 13.426 C 21.311 13.305,21.041 13.229,20.891 13.262 C 20.830 13.276,20.146 13.497,19.371 13.753 L 17.962 14.219 15.971 13.725 L 13.980 13.232 11.990 13.731 L 10.000 14.230 8.018 13.735 C 6.927 13.463,6.014 13.242,5.988 13.245 C 5.961 13.247,5.904 13.257,5.860 13.267 M8.030 15.288 L 9.999 15.779 12.000 15.280 L 14.001 14.781 15.970 15.272 C 17.054 15.541,17.977 15.762,18.023 15.761 C 18.069 15.760,18.237 15.715,18.398 15.661 L 18.690 15.561 18.665 15.719 C 18.530 16.564,17.759 17.522,16.880 17.936 C 16.246 18.235,16.517 18.217,12.420 18.231 C 9.929 18.239,8.650 18.229,8.461 18.200 C 7.834 18.103,7.266 17.817,6.774 17.350 C 6.159 16.764,5.831 16.077,5.774 15.251 C 5.748 14.888,5.750 14.881,5.844 14.843 C 5.897 14.822,5.967 14.803,6.000 14.801 C 6.033 14.799,6.946 15.019,8.030 15.288 " stroke="none" fill-rule="evenodd"/></svg>
